www/assets/icons/timer_10.svg

<svg width="24" height="24" viewBox="0 0 24 24" xmlns="http://www.w3.org/2000/svg" fill='currentColor'><g clip-path="url(#clip0_1616_1919)"><path d="M-0.0100098 7.71502V9.39502L2.98999 8.39502V17.995H4.98999V5.99502H4.73999L-0.0100098 7.71502ZM23.77 14.365C23.63 14.085 23.42 13.835 23.14 13.625C22.86 13.415 22.53 13.235 22.13 13.095C21.73 12.955 21.28 12.825 20.78 12.715C20.43 12.645 20.14 12.565 19.91 12.485C19.68 12.405 19.5 12.325 19.36 12.235C19.22 12.145 19.13 12.045 19.08 11.935C19.03 11.825 19 11.695 19 11.545C19 11.405 19.03 11.265 19.09 11.135C19.15 11.005 19.24 10.885 19.36 10.795C19.48 10.695 19.63 10.615 19.81 10.555C19.99 10.495 20.21 10.465 20.45 10.465C20.7 10.465 20.92 10.505 21.11 10.575C21.3 10.645 21.46 10.745 21.59 10.865C21.72 10.985 21.81 11.125 21.88 11.285C21.94 11.445 21.98 11.605 21.98 11.775H23.93C23.93 11.385 23.85 11.025 23.69 10.685C23.53 10.345 23.3 10.055 23 9.80502C22.7 9.55502 22.34 9.36502 21.91 9.21502C21.48 9.06502 20.99 8.99502 20.45 8.99502C19.94 8.99502 19.47 9.06502 19.06 9.20502C18.65 9.34502 18.29 9.53502 18 9.77502C17.71 10.015 17.49 10.295 17.33 10.615C17.17 10.935 17.1 11.265 17.1 11.625C17.1 11.985 17.18 12.315 17.33 12.585C17.48 12.865 17.69 13.105 17.97 13.315C18.24 13.525 18.57 13.695 18.95 13.845C19.33 13.985 19.76 14.105 20.22 14.205C20.61 14.285 20.93 14.375 21.17 14.465C21.41 14.555 21.6 14.655 21.74 14.755C21.87 14.855 21.96 14.975 22.01 15.095C22.06 15.215 22.08 15.345 22.08 15.485C22.08 15.805 21.95 16.055 21.68 16.255C21.41 16.455 21.02 16.545 20.51 16.545C20.29 16.545 20.08 16.525 19.87 16.465C19.66 16.415 19.47 16.335 19.31 16.225C19.14 16.115 19.01 15.965 18.9 15.785C18.79 15.605 18.73 15.375 18.72 15.115H16.83C16.83 15.475 16.91 15.825 17.07 16.165C17.23 16.505 17.46 16.815 17.77 17.095C18.08 17.365 18.46 17.585 18.92 17.755C19.38 17.925 19.9 18.005 20.5 18.005C21.03 18.005 21.51 17.945 21.94 17.815C22.37 17.685 22.74 17.505 23.05 17.275C23.36 17.045 23.59 16.765 23.76 16.445C23.93 16.125 24.01 15.775 24.01 15.385C23.99 14.985 23.92 14.645 23.77 14.365ZM13.81 7.04502C13.47 6.64502 13.06 6.34502 12.58 6.16502C12.11 5.98502 11.57 5.89502 10.99 5.89502C10.41 5.89502 9.87999 5.98502 9.39999 6.16502C8.91999 6.34502 8.50999 6.63502 8.16999 7.04502C7.82999 7.45502 7.56999 7.97502 7.37999 8.63502C7.19999 9.28502 7.09999 10.085 7.09999 11.025V12.945C7.09999 13.885 7.18999 14.685 7.37999 15.335C7.56999 15.995 7.82999 16.525 8.17999 16.935C8.51999 17.345 8.92999 17.645 9.40999 17.825C9.88999 18.005 10.42 18.105 11 18.105C11.59 18.105 12.12 18.015 12.59 17.825C13.07 17.645 13.47 17.345 13.81 16.935C14.15 16.525 14.41 15.995 14.59 15.335C14.77 14.685 14.87 13.885 14.87 12.945V11.025C14.87 10.085 14.78 9.28502 14.59 8.63502C14.41 7.97502 14.15 7.44502 13.81 7.04502ZM12.89 13.215C12.89 13.815 12.85 14.325 12.77 14.745C12.69 15.165 12.57 15.505 12.41 15.765C12.25 16.025 12.05 16.215 11.82 16.335C11.59 16.455 11.31 16.515 11 16.515C10.7 16.515 10.42 16.455 10.18 16.335C9.93999 16.215 9.73999 16.025 9.57999 15.765C9.41999 15.505 9.28999 15.165 9.19999 14.745C9.10999 14.325 9.06999 13.815 9.06999 13.215V10.715C9.06999 10.115 9.10999 9.60502 9.19999 9.19502C9.28999 8.78502 9.40999 8.45502 9.57999 8.19502C9.73999 7.94502 9.93999 7.76502 10.18 7.64502C10.42 7.53502 10.69 7.47502 10.99 7.47502C11.3 7.47502 11.57 7.53502 11.8 7.64502C12.04 7.75502 12.24 7.93502 12.4 8.19502C12.56 8.44502 12.69 8.77502 12.77 9.18502C12.85 9.59502 12.9 10.105 12.9 10.705V13.215H12.89Z"/></g><defs><clipPath id="clip0_1616_1919"><rect width="24" height="24"/></clipPath></defs></svg>

<svg xmlns="http://www.w3.org/2000/svg" width="24" height="24" viewBox="0 0 24 24" fill='currentColor'><g clip-path="url(#a)"><path d="M-.01 7.715v1.68l3-1v9.6h2v-12h-.25zm23.78 6.65c-.14-.28-.35-.53-.63-.74s-.61-.39-1.01-.53-.85-.27-1.35-.38a7 7 0 0 1-.87-.23 2.6 2.6 0 0 1-.55-.25.7.7 0 0 1-.28-.3.98.98 0 0 1 .01-.8c.06-.13.15-.25.27-.34q.18-.15.45-.24c.18-.06.4-.09.64-.09.25 0 .47.04.66.11s.35.17.48.29.22.26.29.42c.06.16.1.32.1.49h1.95a2.52 2.52 0 0 0-.93-1.97c-.3-.25-.66-.44-1.09-.59s-.92-.22-1.46-.22c-.51 0-.98.07-1.39.21s-.77.33-1.06.57-.51.52-.67.84a2.2 2.2 0 0 0-.23 1.01c0 .36.08.69.23.96.15.28.36.52.64.73.27.21.6.38.98.53.38.14.81.26 1.27.36.39.08.71.17.95.26s.43.19.57.29c.13.1.22.22.27.34s.07.25.07.39c0 .32-.13.57-.4.77s-.66.29-1.17.29c-.22 0-.43-.02-.64-.08-.21-.05-.4-.13-.56-.24a1.33 1.33 0 0 1-.59-1.11h-1.89q0 .54.24 1.05c.16.34.39.65.7.93.31.27.69.49 1.15.66s.98.25 1.58.25c.53 0 1.01-.06 1.44-.19q.645-.195 1.11-.54c.31-.23.54-.51.71-.83s.25-.67.25-1.06c-.02-.4-.09-.74-.24-1.02m-9.96-7.32c-.34-.4-.75-.7-1.23-.88-.47-.18-1.01-.27-1.59-.27q-.87 0-1.59.27c-.48.18-.89.47-1.23.88s-.6.93-.79 1.59c-.18.65-.28 1.45-.28 2.39v1.92c0 .94.09 1.74.28 2.39.19.66.45 1.19.8 1.6.34.41.75.71 1.23.89s1.01.28 1.59.28c.59 0 1.12-.09 1.59-.28.48-.18.88-.48 1.22-.89s.6-.94.78-1.6c.18-.65.28-1.45.28-2.39v-1.92c0-.94-.09-1.74-.28-2.39q-.27-.99-.78-1.59m-.92 6.17q0 .9-.12 1.53t-.36 1.02c-.16.26-.36.45-.59.57s-.51.18-.82.18c-.3 0-.58-.06-.82-.18q-.36-.18-.6-.57c-.16-.26-.29-.6-.38-1.02s-.13-.93-.13-1.53v-2.5c0-.6.04-1.11.13-1.52s.21-.74.38-1c.16-.25.36-.43.6-.55.24-.11.51-.17.81-.17.31 0 .58.06.81.17.24.11.44.29.6.55.16.25.29.58.37.99s.13.92.13 1.52v2.51z"/></g><defs><clipPath id="a"><path d="M0 0h24v24H0z"/></clipPath></defs></svg>
